assets/svg/1F563.svg

<svg xmlns="http://www.w3.org/2000/svg" viewBox="0 0 64 64" enable-background="new 0 0 64 64"><circle fill="#e0e7ec" cx="32.05" cy="32.05" r="29.694"/><path fill="#d1d7da" d="m52.39 47.25c-16.399 0-29.693-13.294-29.693-29.694 0-5.453 1.495-10.547 4.06-14.939-13.806 2.553-24.27 14.633-24.27 29.18 0 16.399 13.294 29.693 29.694 29.693 10.948 0 20.485-5.94 25.635-14.756-1.761.327-3.57.519-5.426.519"/><path fill="#98a9b4" d="m0 32.05c0 17.674 14.378 32.05 32.05 32.05 17.674 0 32.06-14.379 32.06-32.05 0-17.677-14.38-32.06-32.06-32.06-17.675 0-32.05 14.378-32.05 32.05m6.24 0c0-14.236 11.581-25.816 25.813-25.816 14.234 0 25.814 11.58 25.814 25.816 0 14.232-11.58 25.812-25.814 25.812-14.232 0-25.813-11.58-25.813-25.812"/><path fill="#85939c" d="m30.17 53.05c0 1.439.849 2.605 1.894 2.605l0 0c1.043 0 1.895-1.166 1.895-2.605v-21.12c0-1.441-.852-2.61-1.895-2.61l0 0c-1.045 0-1.894 1.168-1.894 2.61v21.12"/><path fill="#788288" d="m17.77 38.925c-1.166.844-1.613 2.215-1 3.062l0 0c.614.844 2.06.846 3.224 0l12.376-8.966c1.163-.844 1.613-2.221.998-3.062l0 0c-.612-.847-2.056-.849-3.22-.008l-12.377 8.974"/></svg>

<?xml version="1.0" encoding="UTF-8" standalone="no"?>
<!-- Generator: Adobe Illustrator 16.0.0, SVG Export Plug-In . SVG Version: 6.00 Build 0)  -->

<svg
   xmlns:dc="http://purl.org/dc/elements/1.1/"
   xmlns:cc="http://creativecommons.org/ns#"
   xmlns:rdf="http://www.w3.org/1999/02/22-rdf-syntax-ns#"
   xmlns:svg="http://www.w3.org/2000/svg"
   xmlns="http://www.w3.org/2000/svg"
   xmlns:sodipodi="http://sodipodi.sourceforge.net/DTD/sodipodi-0.dtd"
   xmlns:inkscape="http://www.inkscape.org/namespaces/inkscape"
   version="1.1"
   id="Layer_1"
   x="0px"
   y="0px"
   width="64px"
   height="64px"
   viewBox="0 0 64 64"
   enable-background="new 0 0 64 64"
   xml:space="preserve"
   inkscape:version="0.48.5 r10040"
   sodipodi:docname="1F563.svg"
   inkscape:export-filename="D:\TESTINGEMOJI\SVGTEST\1F563.png"
   inkscape:export-xdpi="90"
   inkscape:export-ydpi="90"><metadata
   id="metadata4350"><rdf:RDF><cc:Work
       rdf:about=""><dc:format>image/svg+xml</dc:format><dc:type
         rdf:resource="http://purl.org/dc/dcmitype/StillImage" /><dc:title></dc:title></cc:Work></rdf:RDF></metadata><defs
   id="defs4348" /><sodipodi:namedview
   pagecolor="#ffffff"
   bordercolor="#666666"
   borderopacity="1"
   objecttolerance="10"
   gridtolerance="10"
   guidetolerance="10"
   inkscape:pageopacity="0"
   inkscape:pageshadow="2"
   inkscape:window-width="640"
   inkscape:window-height="480"
   id="namedview4346"
   showgrid="false"
   inkscape:zoom="3.6875"
   inkscape:cx="32"
   inkscape:cy="32"
   inkscape:window-x="434"
   inkscape:window-y="287"
   inkscape:window-maximized="0"
   inkscape:current-layer="Layer_1" />
<g
   id="g4334">
	<circle
   fill="#E0E7EC"
   cx="32.055"
   cy="32.053"
   r="29.694"
   id="circle4336" />
	<path
   fill="#D1D7DA"
   d="M52.389,47.251c-16.399,0-29.693-13.294-29.693-29.694c0-5.453,1.495-10.547,4.06-14.939   C12.95,5.171,2.486,17.251,2.486,31.795c0,16.399,13.294,29.693,29.694,29.693c10.948,0,20.485-5.94,25.635-14.756   C56.054,47.059,54.245,47.251,52.389,47.251z"
   id="path4338" />
	<path
   fill="#98A9B4"
   d="M0,32.055c0,17.674,14.378,32.053,32.053,32.053c17.674,0,32.055-14.379,32.055-32.053   C64.108,14.378,49.728,0,32.053,0C14.378,0,0,14.378,0,32.055z M6.24,32.055c0-14.236,11.581-25.816,25.813-25.816   c14.234,0,25.814,11.58,25.814,25.816c0,14.232-11.58,25.812-25.814,25.812C17.821,57.867,6.24,46.287,6.24,32.055z"
   id="path4340" />
	<path
   fill="#85939C"
   d="M30.173,53.051c0,1.439,0.849,2.605,1.894,2.605l0,0c1.043,0,1.895-1.166,1.895-2.605V31.93   c0-1.441-0.852-2.61-1.895-2.61l0,0c-1.045,0-1.894,1.168-1.894,2.61V53.051z"
   id="path4342" />
	<path
   fill="#788288"
   d="M17.77,38.925c-1.166,0.844-1.613,2.215-1.001,3.062l0,0c0.614,0.844,2.06,0.846,3.224,0l12.376-8.966   c1.163-0.844,1.613-2.221,0.998-3.062l0,0c-0.612-0.847-2.056-0.849-3.22-0.008L17.77,38.925z"
   id="path4344" />
</g>
</svg>
